src/icons/commitlint.svg

<svg viewBox="0 0 24 24" xmlns="http://www.w3.org/2000/svg">
  <path
    d="M2.46907 2.92209V8.36925H4.28313V2.92209H2.46907ZM15.1785 4.73814C13.6249 4.73882 12.1123 5.23696 10.8623 6.15959C9.61235 7.08223 8.69066 8.38087 8.23225 9.8653L6.10018 12.0004L8.23325 14.1334C9.14927 17.1015 11.9104 19.2626 15.1785 19.2626C19.1906 19.2626 22.4397 16.0125 22.4397 12.0004C22.4397 7.98824 19.1906 4.73814 15.1785 4.73814ZM18.1195 8.44125L19.4616 10.0713L13.9714 15.5595L10.7933 12.0924L12.1334 10.7523L13.9714 12.5904L18.1195 8.44125ZM3.3771 10.1843C2.37907 10.1843 1.56105 11.0013 1.56105 12.0004C1.56085 12.3598 1.66727 12.7113 1.86686 13.0102C2.06644 13.3092 2.35022 13.5423 2.68228 13.6799C3.01435 13.8176 3.37978 13.8536 3.73235 13.7835C4.08491 13.7135 4.40877 13.5404 4.66295 13.2862C4.91713 13.032 5.09021 12.7082 5.16029 12.3556C5.23037 12.003 5.1943 11.6376 5.05665 11.3055C4.919 10.9735 4.68595 10.6897 4.38698 10.4901C4.08801 10.2905 3.73657 10.1841 3.3771 10.1843ZM2.47007 15.6305V21.0776H4.28413V15.6305H2.47007Z"
    fill="#009688"
  />
</svg>

<svg viewBox="0 0 24 24" xmlns="http://www.w3.org/2000/svg"><path transform="scale(1.00003)" d="M2.469 2.922v5.447h1.814V2.922zm12.709 1.816a7.273 7.273 0 0 0-6.946 5.127L6.1 12l2.133 2.133c.916 2.968 3.677 5.129 6.945 5.129 4.012 0 7.261-3.25 7.261-7.262s-3.249-7.262-7.261-7.262zm2.941 3.703 1.342 1.63-5.49 5.488-3.178-3.467 1.34-1.34 1.838 1.838 4.148-4.149zM3.377 10.184c-.998 0-1.816.817-1.816 1.816a1.817 1.817 0 1 0 1.816-1.816zM2.47 15.63v5.447h1.814V15.63z" style="fill:#009688;stroke-width:.90777"/></svg>
